T96O4Q7L8
>D4CD16<G4A#>DC4C16<A#A4.R16FG2R16G16A16A#>D.A.<A2R4
G16A16A#16>C16D4G4FD#16DCD#D16C<A#16A16FG4>C2D#4D2.&D<
GAA#>D#DCFC2.R16D16D#.C2.D16D#.G4.FGF16D.<A#A4.A#>DC16<A#.AG4>D2
D#DC4C<A#16A.F#G16A.>C4.<A#16A16A#2R4
G16A16A#16>C16D4.DF.D#D16C2.RG16G16F16GAA#GA.A#.>D.<